public/logos/LG.svg

<?xml version="1.0" encoding="UTF-8"?>
<svg xmlns="http://www.w3.org/2000/svg" xmlns:xlink="http://www.w3.org/1999/xlink" width="176pt" height="54.02pt" viewBox="0 0 176 54.02" version="1.1">
<defs>
<clipPath id="clip1">
  <path d="M 31 23 L 176 23 L 176 54.019531 L 31 54.019531 Z M 31 23 "/>
</clipPath>
</defs>
<g id="surface1">
<g clip-path="url(#clip1)" clip-rule="nonzero">
<path style=" stroke:none;fill-rule:nonzero;fill:rgb(25.325012%,68.6203%,75.40741%);fill-opacity:1;" d="M 128.679688 46.628906 C 128.679688 48.515625 128.292969 49.957031 124.933594 49.957031 C 122.183594 49.957031 121.1875 48.882812 121.1875 46.609375 C 121.1875 45.125 122.058594 44.246094 124.3125 43.367188 C 125.761719 42.78125 127.191406 42.285156 128.679688 41.75 Z M 125.210938 30.347656 C 122.195312 30.347656 118.464844 30.832031 115.75 31.71875 C 115.648438 31.75 115.617188 31.828125 115.617188 31.941406 L 115.617188 35.714844 C 115.617188 36.265625 115.8125 36.53125 116.160156 36.53125 C 116.378906 36.539062 116.648438 36.402344 117.003906 36.253906 C 119.203125 35.292969 121.644531 34.84375 124.613281 34.84375 C 128.246094 34.84375 128.679688 35.429688 128.679688 36.648438 C 128.679688 37.667969 128.613281 37.699219 127.144531 38.09375 C 123.816406 39.039062 119.914062 39.910156 116.78125 41.652344 C 114.59375 42.867188 113.804688 45.027344 113.804688 47.332031 C 113.804688 52.324219 116.859375 54.003906 123.640625 54.003906 C 129.339844 54.003906 133.464844 53.273438 135.917969 52.285156 L 135.917969 37.152344 C 135.921875 31.476562 130.320312 30.347656 125.210938 30.347656 M 148.757812 30.851562 L 143.152344 30.851562 L 143.152344 53.488281 L 150.394531 53.488281 L 150.394531 32.671875 C 150.394531 31.222656 150.03125 30.851562 148.757812 30.851562 M 175.492188 30.730469 C 173.761719 30.496094 171.378906 30.332031 168.636719 30.332031 C 164.636719 30.351562 160.304688 30.707031 157.628906 31.683594 L 157.628906 53.488281 L 164.867188 53.488281 L 164.867188 38.097656 C 164.867188 36.597656 165.71875 35.519531 167.1875 35.300781 C 168.210938 35.140625 169.710938 35.074219 170.699219 35.085938 C 172.726562 35.109375 174.640625 35.292969 175.652344 35.582031 C 175.652344 35.582031 175.832031 35.625 175.925781 35.542969 L 176 35.324219 L 176 31.304688 C 176 30.9375 175.894531 30.789062 175.492188 30.730469 M 148.757812 23.601562 L 143.152344 23.601562 L 143.152344 28.507812 L 150.394531 28.507812 L 150.394531 25.300781 C 150.394531 23.78125 150.144531 23.601562 148.757812 23.601562 M 79.253906 30.851562 L 73.203125 30.851562 L 73.203125 49.03125 C 72.089844 49.433594 70.160156 49.558594 68.863281 49.558594 C 65.914062 49.558594 64.613281 48.445312 64.613281 46.589844 L 64.613281 32.058594 C 64.613281 31.394531 64.082031 30.855469 63.425781 30.855469 L 57.378906 30.855469 L 57.378906 46.121094 C 57.378906 51.605469 61.257812 54.011719 69.007812 54.011719 C 73.683594 54.011719 78.199219 53.246094 80.449219 52.234375 L 80.449219 32.058594 C 80.445312 31.382812 79.914062 30.851562 79.253906 30.851562 M 110.625 30.851562 L 103.3125 30.851562 C 102.671875 30.851562 102.191406 31.066406 101.839844 31.625 L 98.128906 37.125 L 97.976562 37.125 L 94.394531 31.625 C 94.042969 31.078125 93.589844 30.851562 92.945312 30.851562 L 84.878906 30.851562 L 92.90625 42 L 83.953125 53.488281 L 91.292969 53.488281 C 91.980469 53.488281 92.480469 53.175781 92.777344 52.71875 L 97.226562 46.074219 L 97.410156 46.074219 L 101.582031 52.464844 C 102.019531 53.230469 102.515625 53.488281 103.226562 53.488281 L 111.511719 53.488281 L 102.4375 41.535156 Z M 52.992188 48.433594 C 51.824219 48.511719 49.234375 48.652344 47.5625 48.664062 C 45.878906 48.664062 44.332031 48.605469 43.695312 48.539062 C 40.832031 48.238281 39.875 47.09375 39.875 44.183594 L 39.875 27.386719 C 39.875 25.851562 39.59375 25.339844 37.816406 25.339844 L 31.914062 25.339844 L 31.914062 45.71875 C 31.914062 51.605469 33.40625 54.019531 43.765625 54.019531 C 51.769531 54.019531 54.8125 53.613281 54.8125 53.613281 C 54.8125 53.613281 54.835938 50.851562 54.835938 49.789062 C 54.832031 48.386719 54.679688 48.316406 52.992188 48.433594 "/>
</g>
<path style=" stroke:none;fill-rule:nonzero;fill:rgb(25.325012%,68.6203%,75.40741%);fill-opacity:1;" d="M 18.03125 3.328125 L 4.042969 20.160156 C 3.894531 20.320312 3.84375 20.507812 3.90625 20.65625 C 3.972656 20.8125 4.117188 20.914062 4.316406 20.914062 L 25.941406 20.914062 C 26.132812 20.914062 26.269531 20.75 26.269531 20.566406 C 26.269531 20.375 26.179688 20.265625 25.992188 20.222656 C 25.214844 20.035156 20.96875 19.117188 17.917969 18.195312 C 16.027344 17.625 15.289062 16 15.785156 13.832031 C 16.324219 11.429688 18.628906 3.710938 18.640625 3.6875 C 18.691406 3.53125 18.65625 3.328125 18.488281 3.25 C 18.304688 3.152344 18.148438 3.199219 18.03125 3.328125 "/>
<path style=" stroke:none;fill-rule:nonzero;fill:rgb(25.325012%,68.6203%,75.40741%);fill-opacity:1;" d="M 15.238281 1.859375 C 7.847656 1.859375 1.859375 7.851562 1.859375 15.253906 C 1.859375 22.636719 7.847656 28.628906 15.238281 28.628906 C 22.625 28.628906 28.621094 22.636719 28.621094 15.253906 C 28.621094 7.792969 22.625 1.859375 15.238281 1.859375 M 15.238281 0 C 23.609375 0 30.421875 6.816406 30.421875 15.253906 C 30.421875 23.613281 23.609375 30.4375 15.238281 30.4375 C 6.8125 30.4375 0 23.613281 0 15.253906 C 0 6.820312 6.8125 0 15.238281 0 "/>
</g>
</svg>

<svg xmlns="http://www.w3.org/2000/svg" width="176pt" height="72.027" viewBox="0 0 176 54.02"><defs><clipPath id="a"><path d="M31 23h145v31.02H31Zm0 0"/></clipPath></defs><g clip-path="url(#a)"><path d="M128.68 46.629c0 1.887-.387 3.328-3.746 3.328-2.75 0-3.746-1.074-3.746-3.348 0-1.484.87-2.363 3.124-3.242 1.45-.586 2.88-1.082 4.368-1.617Zm-3.47-16.281c-3.015 0-6.745.484-9.46 1.37-.102.032-.133.11-.133.223v3.774c0 .55.195.816.543.816.219.008.488-.129.844-.277 2.2-.961 4.64-1.41 7.61-1.41 3.632 0 4.066.586 4.066 1.804 0 1.02-.067 1.051-1.535 1.446-3.329.945-7.23 1.816-10.364 3.558-2.187 1.215-2.976 3.375-2.976 5.68 0 4.992 3.054 6.672 9.836 6.672 5.699 0 9.824-.73 12.277-1.719V37.152c.004-5.675-5.598-6.804-10.707-6.804m23.547.504h-5.606v22.636h7.243V32.672c0-1.45-.364-1.82-1.637-1.82m26.734-.122c-1.73-.234-4.113-.398-6.855-.398-4 .02-8.332.375-11.008 1.352v21.804h7.238v-15.39c0-1.5.852-2.578 2.32-2.797 1.024-.16 2.524-.227 3.512-.215 2.028.023 3.942.207 4.953.496 0 0 .18.043.274-.039l.074-.219v-4.02c0-.366-.105-.515-.508-.574m-26.734-7.128h-5.606v4.906h7.243V25.3c0-1.52-.25-1.7-1.637-1.7m-69.504 7.25h-6.05v18.18c-1.114.403-3.044.528-4.34.528-2.95 0-4.25-1.114-4.25-2.97V32.06c0-.664-.532-1.204-1.188-1.204h-6.047v15.266c0 5.484 3.879 7.89 11.629 7.89 4.676 0 9.191-.765 11.441-1.777V32.06a1.2 1.2 0 0 0-1.195-1.207m31.371 0h-7.312c-.641 0-1.122.214-1.473.773l-3.711 5.5h-.152l-3.582-5.5c-.352-.547-.805-.773-1.45-.773H84.88L92.906 42l-8.953 11.488h7.34c.687 0 1.187-.312 1.484-.77l4.45-6.644h.183l4.172 6.39c.438.766.934 1.024 1.645 1.024h8.285l-9.074-11.953ZM52.992 48.434c-1.168.078-3.758.218-5.43.23-1.683 0-3.23-.059-3.867-.125-2.863-.3-3.82-1.445-3.82-4.355V27.387c0-1.535-.281-2.047-2.059-2.047h-5.902v20.379c0 5.886 1.492 8.3 11.852 8.3 8.004 0 11.047-.406 11.047-.406s.023-2.761.023-3.824c-.004-1.402-.156-1.473-1.844-1.355" style="stroke:none;fill-rule:nonzero;fill:#41afc0;fill-opacity:1"/></g><path d="M18.031 3.328 4.043 20.16c-.148.16-.2.348-.137.496.067.157.211.258.41.258h21.625c.192 0 .329-.164.329-.348 0-.191-.09-.3-.278-.343-.777-.188-5.023-1.106-8.074-2.028-1.89-.57-2.629-2.195-2.133-4.363.54-2.402 2.844-10.121 2.856-10.144.05-.157.015-.36-.153-.438-.183-.098-.34-.05-.457.078" style="stroke:none;fill-rule:nonzero;fill:#41afc0;fill-opacity:1"/><path d="M15.238 1.86C7.848 1.86 1.86 7.851 1.86 15.253c0 7.383 5.989 13.375 13.38 13.375 7.386 0 13.382-5.992 13.382-13.375 0-7.461-5.996-13.395-13.383-13.395m0-1.859c8.371 0 15.184 6.816 15.184 15.254 0 8.36-6.813 15.184-15.184 15.184C6.813 30.438 0 23.613 0 15.254 0 6.82 6.813 0 15.238 0" style="stroke:none;fill-rule:nonzero;fill:#41afc0;fill-opacity:1"/></svg>
